icons/glyphs/glyph-facebook1.svg

<?xml version="1.0" encoding="UTF-8" standalone="no"?><svg viewBox="0 0 16 16" xmlns="http://www.w3.org/2000/svg"><metadata><rdf:RDF><cc:Work><dc:format>image/svg+xml</dc:format><dc:type/><dc:title/></cc:Work></rdf:RDF></metadata><sodipodi:namedview/><path d="m9.3633335 16h-3.488v-7.5306667h-1.876v-3.0586666h1.876v-1.6133334c0-2.3813333.984-3.7973333 3.78-3.7973333h2.3280005v2.92h-1.454667c-1.0880005 0-1.1600005.408-1.1600005 1.1693333l-.004 1.3226667h2.6359995l-.307999 3.0586667h-2.3280005z" fill="#d0d0d0"/></svg>

<?xml version="1.0" encoding="UTF-8" standalone="no"?>
<svg
   xmlns:dc="http://purl.org/dc/elements/1.1/"
   xmlns:cc="http://creativecommons.org/ns#"
   xmlns:rdf="http://www.w3.org/1999/02/22-rdf-syntax-ns#"
   xmlns:svg="http://www.w3.org/2000/svg"
   xmlns="http://www.w3.org/2000/svg"
   xmlns:sodipodi="http://sodipodi.sourceforge.net/DTD/sodipodi-0.dtd"
   xmlns:inkscape="http://www.inkscape.org/namespaces/inkscape"
   viewBox="0 0 16 16"
   version="1.1"
   id="svg6"
   sodipodi:docname="glyph-facebook1.svg"
   inkscape:version="0.92+devel (7086fba083, 2017-08-05, custom)">
  <metadata
     id="metadata10">
    <rdf:RDF>
      <cc:Work
         rdf:about="">
        <dc:format>image/svg+xml</dc:format>
        <dc:type
           rdf:resource="http://purl.org/dc/dcmitype/StillImage" />
        <dc:title></dc:title>
      </cc:Work>
    </rdf:RDF>
  </metadata>
  <sodipodi:namedview
     pagecolor="#002466"
     bordercolor="#ffffff"
     inkscape:document-rotation="0"
     borderopacity="0.2627451"
     objecttolerance="10"
     gridtolerance="10"
     guidetolerance="10"
     inkscape:pageopacity="1"
     inkscape:pageshadow="2"
     inkscape:window-width="1920"
     inkscape:window-height="1051"
     id="namedview8"
     showgrid="false"
     borderlayer="true"
     inkscape:showpageshadow="false"
     inkscape:zoom="45.9375"
     inkscape:cx="7.9673469"
     inkscape:cy="8"
     inkscape:window-x="0"
     inkscape:window-y="0"
     inkscape:window-maximized="1"
     inkscape:current-layer="svg6" />
  <defs
     id="defs3051">
    <style
       type="text/css"
       id="current-color-scheme">
      .ColorScheme-Text {
        color:#f2f2f2;
      }
      </style>
  </defs>
  <path
     style="fill:#d0d0d0;fill-opacity:1;stroke:none;stroke-width:1.33333337"
     d="m 9.3633335,16 h -3.488 V 8.4693333 h -1.876 V 5.4106667 h 1.876 V 3.7973333 C 5.8753335,1.416 6.8593335,0 9.6553335,0 H 11.983334 V 2.92 H 10.528667 C 9.4406665,2.92 9.3686665,3.328 9.3686665,4.0893333 L 9.3646665,5.412 H 12.000666 L 11.692667,8.4706667 H 9.3646665 Z"
     class="ColorScheme-Text"
     id="path4"
     inkscape:connector-curvature="0"
     inkscape:label="#" />
</svg>
